dist/svg/static/anti-theft-alarm-system-large.svg

<svg xmlns="http://www.w3.org/2000/svg" width="48" height="48" viewBox="0 0 48 48"><g fill="none" stroke="currentColor" stroke-miterlimit="10"><path d="M12.5 36.5h24c.6 0 1 .4 1 1v4c0 .6-.4 1-1 1h-24c-.6 0-1-.4-1-1v-4c0-.6.4-1 1-1zM14.6 36.5l3.9-20c0-.5.3-1 .8-1h10.1c.5 0 .9.4.9.9v.1l4 20"/><g><path d="M35 24.5h10M34 14l7.1-7M24.5 2v10M16 14L9 7M4 24.5h10"/></g></g></svg>

<?xml version="1.0" encoding="UTF-8" standalone="no"?>
<svg width="48px" height="48px" viewBox="0 0 48 48" version="1.1" xmlns="http://www.w3.org/2000/svg" xmlns:xlink="http://www.w3.org/1999/xlink">
    <!-- Generator: sketchtool 46.2 (44496) - http://www.bohemiancoding.com/sketch -->
    <title>anti-theft-alarm-system-large</title>
    <desc>Created with sketchtool.</desc>
    <defs></defs>
    <g id="icons-published" stroke="none" stroke-width="1" fill="none" fill-rule="evenodd">
        <g id="briefing" transform="translate(-1728.000000, -26.000000)"></g>
        <g id="anti-theft-alarm-system-large" stroke="#000000">
            <path d="M12.5,36.5 L36.5,36.5 C37.1,36.5 37.5,36.9 37.5,37.5 L37.5,41.5 C37.5,42.1 37.1,42.5 36.5,42.5 L12.5,42.5 C11.9,42.5 11.5,42.1 11.5,41.5 L11.5,37.5 C11.5,36.9 11.9,36.5 12.5,36.5 Z" id="Shape"></path>
            <path d="M14.6,36.5 L18.5,16.5 C18.5,16 18.8,15.5 19.3,15.5 L29.4,15.5 C29.9,15.5 30.3,15.9 30.3,16.4 L30.3,16.5 L34.3,36.5" id="Path"></path>
            <path d="M35,24.5 L45,24.5 M34,14 L41.1,7 M24.5,2 L24.5,12 M16,14 L9,7 M4,24.5 L14,24.5" id="Shape"></path>
        </g>
    </g>
</svg>
